X:18
T:Gordon Stewart Forbes
R:jig
C:Alexander Waller
B:Walker Collection,1866
D:Lake Bras D'Or, Theresa Morrison
Z:Paul Stewart Cranford (P.S.C.), <http://www.cranfordpub.com>
L:1/8
M:6/8
K:Emin
D|B,2 E EDE|G2 AB2 e|d2 B ABG|F2 E D2 A,|
B,2 E EDE|G2  A B2 e|d2 B BAB|G2 E E2:|
||B|eBe g2 e|dBd G2 A|BGB ABG|F2 ED2 B|
eBe g2 e|dBd G2 A|BGB AFA|G2 E E2 B|
eBe g2 e|dBd G2 A|BGB ABG|FGE FED|
B,2 E EDE|G2 AB2 e|edB BAB|G2 E E2|]
